!!!COM:	la Rue, Pierre de
!!!CDT:	~1452///-1518/11/20
!!!OTL:	Pourquoy non
!!!AGN:	Song; Chanson
!!!SCT:	Rue3018
!!!SCA:	Rue3018
!!!voices:	4
**kern	**kern	**kern	**kern
*staff4	*staff3	*staff2	*staff1
*Ivox	*Ivox	*Ivox	*Ivox
*I"Bassus	*I"Tenor	*I"Contra	*I"Discantus
*I'B	*I'T	*I'C	*I'D
*clefF4	*clefF4	*clefF4	*clefGv2
*k[b-e-]	*k[b-e-]	*k[b-e-]	*k[b-e-]
*M2/1	*M2/1	*M2/1	*M2/1
*met(C|)	*met(C|)	*met(C|)	*met(C|)
=1-	=1-	=1-	=1-
0r	0r	0E-	0r
=2	=2	=2	=2
0r	0r	0A-	0r
=3	=3	=3	=3
0r	0r	1G	0B-
.	.	[1E-	.
=4	=4	=4	=4
0r	0r	2E-\]	0e-
.	.	2F\	.
.	.	2G\	.
.	.	2A\	.
=5	=5	=5	=5
0r	0BB-	1.B-	1.d
.	.	4A\	4c\
.	.	4G\	4B-\
=6	=6	=6	=6
0r	1.E-	2.A\	2c\
.	.	.	2.B-\
.	.	4G\	.
.	.	1B-	.
.	.	.	4A/
.	2D\	.	4G/
.	.	.	4F/
=7	=7	=7	=7
0EE-	1C	2r	1E-
.	.	2.E-\	.
.	1BB-	.	2r
.	.	4F\	.
.	.	[2G\	[2e-\
=8	=8	=8	=8
0AA-	0C	2G\]	2e-\]
.	.	4F\	2d\
.	.	4E-\	.
.	.	1F	1c
=9	=9	=9	=9
0GG;	0D;	0G;	0B-;
=10	=10	=10	=10
1r	1r	1r	1r
1EE-	1G	1B-	1e-
=11	=11	=11	=11
1EE-	1G	1B-	1e-
1EE-	1G	1B-	1e-
=12	=12	=12	=12
0FF	2F\	1A	2d\
.	1E-	.	1c
.	.	1F	.
.	2D\	.	4B-\
.	.	.	4A/
=13	=13	=13	=13
[0EE-	1E-	2r	[0G
.	.	1BB-	.
.	2r	.	.
.	2E-\	2C/	.
=14	=14	=14	=14
0EE-_	2C/	2.E-\	0G_
.	2BB-/	.	.
.	.	4D\	.
.	1E-	2C/	.
.	.	2BB-/	.
=15	=15	=15	=15
0EE-;]	0BB-;	0E-;	0G;]
=16	=16	=16	=16
0r	0r	0E-	0r
=17	=17	=17	=17
0r	0r	0A-i	0r
=18	=18	=18	=18
0r	0r	1G	0B-
.	.	[1E-	.
=19	=19	=19	=19
0r	0r	2E-\]	0e-
.	.	2F\	.
.	.	2G\	.
.	.	2A\	.
=20	=20	=20	=20
0r	0BB-	1.B-	1.d
.	.	4A\	4c\
.	.	4G\	4B-\
=21	=21	=21	=21
0r	1.E-	2.A\	2c\
.	.	.	2.B-\
.	.	4G\	.
.	.	1B-	.
.	.	.	4A/
.	2D\	.	4G/
.	.	.	4F/
=22	=22	=22	=22
0EE-	1C	2r	1E-
.	.	2.E-\	.
.	1BB-	.	1e-
.	.	4F\	.
.	.	[2G\	.
=23	=23	=23	=23
0AA-i	0C	2G\]	2c\
.	.	4F\	2.f\
.	.	4E-\	.
.	.	1F	.
.	.	.	4e-\
.	.	.	4d\
.	.	.	4c\
=24	=24	=24	=24
0GG;	0D;	0G;	0B-;
=25	=25	=25	=25
1r	1r	1r	1r
1BB-	1D	1F	1d
=26	=26	=26	=26
1BB-	1F	1B-	1d
1BB-	1F	1B-	1d
=27	=27	=27	=27
0EE-	1.G	2.G\	2c\
.	.	.	1B-
.	.	4A\	.
.	.	[1B-	.
.	4F\	.	[2e-\
.	4E-\	.	.
=28	=28	=28	=28
1BB-	1F	1B-]	2e-\]
.	.	.	2d\
1C	2r	2r	1e-
.	2E-\	2A\	.
=29	=29	=29	=29
1BB-	1F	1B-	2r
.	.	.	2d\
1C	2r	2G\	1e-
.	2E-\	2A\	.
=30	=30	=30	=30
1BB-	2.F\	1B-	2r
.	.	.	2d\
.	4E-\	.	.
[1AA-i	1C	1E-	2e-\
.	.	.	[2c\
=31	=31	=31	=31
1AA-]	2.E-\	1C	2c\]
.	.	.	4B-\
.	4F\	.	4A-i/
1GG	2.G\	1D	2B-\
.	.	.	2G/
.	4F\	.	.
=32	=32	=32	=32
2FF/	2D\	2r	4A-i/
.	.	.	4G/
2EE-/	1E-	1BB-	4F/
.	.	.	4E-/
1BB-	.	.	1F
.	2D\	[2B-\	.
=33	=33	=33	=33
0EE-	0E-	2B-\]	0E-
.	.	2A\	.
.	.	1G	.
=34	=34	=34	=34
0DD-	0AA-	0F	0A-
=35	=35	=35	=35
0EE-	2.C/	1.E-	1G
.	4BB-/	.	.
.	1BB-	.	2r
.	.	2D\	2B-\
=36	=36	=36	=36
1r	1r	2E-\	1c
.	.	2F\	.
1EE-	1E-	1G	1e-
=37	=37	=37	=37
1BB-	[0F	1r	1d
1AA	.	1C	1c
=38	=38	=38	=38
1.D	0F]	1.BB-	1.f
2C/	.	2C/	2e-\
=39	=39	=39	=39
1BB-	1F	2D\	1d
.	.	2BB-/	.
1AA	1F	1C	1c
=40	=40	=40	=40
1GG	0G	1D	0B-
1EE-	.	1E-	.
=41	=41	=41	=41
0FF	0F	[0C	0A
=42	=42	=42	=42
1r	[0E-	0C]	0G
1C	.	.	.
=43	=43	=43	=43
2C/	0E-]	1r	1r
2C/	.	.	.
2C/	.	2r	1c
[2AA-i/	.	[2c\	.
=44	=44	=44	=44
2AA-i/]	0r	4c\]	2c\
.	.	4B-\	.
4GG/	.	2A\	1c
4FF/	.	.	.
2EE-/	.	2G\	.
2FF/	.	2F\	[2A/
=45	=45	=45	=45
2C/	0r	2E-\	2A/]
2D\	.	1F	4G/
.	.	.	4F/
1C	.	.	1G
.	.	2Eni\	.
=46	=46	=46	=46
0FF	1r	0F	1F
.	1F	.	2r
.	.	.	[2f\
=47	=47	=47	=47
0r	2F\	0r	4f\]
.	.	.	4e-\
.	1F	.	2d\
.	.	.	2c\
.	[2D\	.	2B-\
=48	=48	=48	=48
1r	2D\]	1r	2A/
.	4C/	.	1B-
.	4BB-/	.	.
1FF	1C	1F	.
.	.	.	2A/
=49	=49	=49	=49
1GG	[0BB-	1D	0B-
[1EE-	.	1E-	.
=50	=50	=50	=50
2EE-/]	0BB-]	0B-	1r
2DD/	.	.	.
1EE-	.	.	1G
=51	=51	=51	=51
1FF	0r	1A	1F
1DD	.	1A	1F
=52	=52	=52	=52
1EE-	1r	1G	1E-
2r	1G	2.E-\	1B-
2EE-/	.	.	.
.	.	4D\	.
=53	=53	=53	=53
1FF	1F	1C	1A
1DD	1F	1D	1A
=54	=54	=54	=54
2EE-/	1E-	0BB-	1G
2.GG/	.	.	.
.	1B-	.	2r
4AA/	.	.	.
2BB-/	.	.	2d\
=55	=55	=55	=55
1C	1A-	1r	1e-
1D	1A-i	1F	1f
=56	=56	=56	=56
1.E-	1G	2E-\	1.g
.	.	1G	.
.	1E-	.	.
4D\	.	2A\	4f\
4C/	.	.	4e-\
=57	=57	=57	=57
1BB-	2F\	1.B-	1d
.	1G	.	.
2r	.	.	2e-\
2BB-/	4F\	4A\	[2d\
.	4E-\	4G\	.
=58	=58	=58	=58
1BB-	1D	1F	2d\]
.	.	.	4c\
.	.	.	4B-\
1r	1E-	1G	2c\
.	.	.	2B-\
=59	=59	=59	=59
2r	1D	1F	1f
2D\	.	.	.
2C/	1G	1r	2e-\
[2BB-/	.	.	[2d\
=60	=60	=60	=60
2BB-/]	2r	2r	2d\]
4AA/	1F	2C/	4c\
4GG/	.	.	4B-\
1FF	.	1C	1A
.	4E-\	.	.
.	4F\	.	.
=61	=61	=61	=61
2r	2G\	1C	1r
2FF/	1F	.	.
1FF	.	2r	2r
.	4E-\	2F\	[2c\
.	4D\	.	.
=62	=62	=62	=62
1FF	1C	1F	2c\]
.	.	.	4B-\
.	.	.	4c\
2r	2BB-/	1F	2d\
2FF/	2F\	.	[2c\
=63	=63	=63	=63
2EE-/	2G\	2r	2c\]
2FF/	1F	1C	4B-\
.	.	.	4A/
1C	.	.	1G
.	2Eni\	4BB-/	.
.	.	4C/	.
=64	=64	=64	=64
1FF	1F	2D\	2F/
.	.	2C/	1c
2r	2r	2.F\	.
2FF/	[2F\	.	4B-\
.	.	4G\	4c\
=65	=65	=65	=65
1FF	2F\]	1A	2d\
.	4E-\	.	2c\
.	4F\	.	.
2r	2G\	1r	4B-\
.	.	.	4A/
2FF/	[2F\	.	[2c\
=66	=66	=66	=66
1FF	2F\]	2r	2c\]
.	4E-\	2F\	1B-
.	4D\	.	.
1FF	1C	1F	.
.	.	.	2A/
=67	=67	=67	=67
*^	*	*	*
0BBB-l\	0BB-l/	0BB-l	0Fl	0B-l
*v	*v	*	*	*
==	==	==	==
*-	*-	*-	*-
!!!RDF**kern: l=long note in original notation
!!!RDF**kern: i=editorial accidental
!!!ENC:	Chris Gage 06-17-2013
!!!END:	2013/08/13/
!!!EED:	Jesse Rodin
!!!EEV:	2013/12/30/
!!!ONB:	Translated from MusicXML and edited on 2013/12/30/ by Craig Sapp
!!muse2ps: C^@{COM}^i2I150v85,85,85,150Q16
